resources/svg/nextjs-o.svg

<svg xmlns="http://www.w3.org/2000/svg" viewBox="0 0 15 15" fill="none"><path d="M4.5 4.5L4.90534 4.20725C4.77836 4.03144 4.55252 3.95753 4.34617 4.02425C4.13981 4.09098 4 4.28313 4 4.5H4.5ZM7.5 14C3.91015 14 1 11.0899 1 7.5H0C0 11.6421 3.35786 15 7.5 15V14ZM14 7.5C14 11.0899 11.0899 14 7.5 14V15C11.6421 15 15 11.6421 15 7.5H14ZM7.5 1C11.0899 1 14 3.91015 14 7.5H15C15 3.35786 11.6421 0 7.5 0V1ZM7.5 0C3.35786 0 0 3.35786 0 7.5H1C1 3.91015 3.91015 1 7.5 1V0ZM5 12V4.5H4V12H5ZM4.09466 4.79275L10.5947 13.7927L11.4053 13.2073L4.90534 4.20725L4.09466 4.79275ZM10 4V10H11V4H10Z" fill="black"/></svg>

<svg xmlns="http://www.w3.org/2000/svg" viewBox="0 0 15 15" fill="none"><path d="M4.5 4.5l.405-.293A.5.5 0 004 4.5h.5zm3 9.5A6.5 6.5 0 011 7.5H0A7.5 7.5 0 007.5 15v-1zM14 7.5A6.5 6.5 0 017.5 14v1A7.5 7.5 0 0015 7.5h-1zM7.5 1A6.5 6.5 0 0114 7.5h1A7.5 7.5 0 007.5 0v1zm0-1A7.5 7.5 0 000 7.5h1A6.5 6.5 0 017.5 1V0zM5 12V4.5H4V12h1zm-.905-7.207l6.5 9 .81-.586-6.5-9-.81.586zM10 4v6h1V4h-1z" fill="currentColor"/></svg>
